static/logos/wix-glyph-color.svg

<svg width="75" height="30" viewBox="0 0 75 30" fill="none" xmlns="http://www.w3.org/2000/svg">
<g clip-path="url(#clip0_1_375)">
<path fill-rule="evenodd" clip-rule="evenodd" d="M0 0.0342857C0 0.0342857 2.95352 -0.347143 4.92254 1.43786C6.13732 2.53929 6.4912 4.29429 6.4912 4.29429L10.5127 20.3143L13.856 7.20107C14.1824 5.80714 14.7687 4.08429 15.6972 2.91857C16.8813 1.43464 19.2866 1.34143 19.5433 1.34143C19.7989 1.34143 22.2042 1.43464 23.3873 2.91857C24.3169 4.08429 24.9032 5.80714 25.2296 7.20107L28.5729 20.3143L32.5933 4.29321C32.5933 4.29321 32.9482 2.53821 34.163 1.43679C36.132 -0.347143 39.0845 0.0342857 39.0845 0.0342857L31.3849 29.9754C31.3849 29.9754 28.8454 30.1639 27.5746 29.4975C25.9056 28.6232 25.1113 27.9471 24.1004 23.8736L23.9958 23.4504C23.6271 21.9514 23.063 19.6039 22.4916 17.2221L22.3204 16.5075L22.1493 15.7961C21.3264 12.3696 20.568 9.21429 20.4465 8.81357C20.3324 8.4375 20.1972 7.54179 19.5433 7.54179C18.9021 7.54179 18.7553 8.43857 18.638 8.81357C18.5007 9.255 17.5923 13.0511 16.6775 16.8643L16.5063 17.5789C16.0389 19.5372 15.5667 21.4944 15.0898 23.4504L14.9842 23.8736C13.9743 27.9471 13.1799 28.6232 11.5109 29.4975C10.2391 30.1639 7.69965 29.9754 7.69965 29.9754L0 0.0342857ZM46.4768 5.35714V6.42321L46.4789 6.42214V24.2379C46.4641 27.8946 46.0849 28.7057 44.437 29.5479C43.1556 30.2014 41.1972 29.9539 41.1972 29.9539V9.99857C41.1972 8.99679 41.5299 8.34 42.7574 7.75072C43.4894 7.39822 44.1729 7.12929 44.8827 6.72964C45.993 6.11036 46.4768 5.35714 46.4768 5.35714ZM48.5916 0.133929C48.5916 0.133929 52.687 -0.587143 54.7151 1.32C56.0123 2.54143 57.4637 4.73786 57.4637 4.73786L61.0342 10.0575C61.2074 10.3339 61.4335 10.6361 61.7947 10.6361C62.157 10.6361 62.3842 10.3339 62.5574 10.0575L66.1278 4.73786C66.1278 4.73786 67.5792 2.54143 68.8764 1.32C70.9046 -0.587143 75 0.133929 75 0.133929L65.2965 15.0514L74.9736 29.9239L74.9398 29.9282C74.5384 29.9764 70.6764 30.3814 68.7549 28.5718C67.4567 27.3525 66.1278 25.3661 66.1278 25.3661L62.5574 20.0475C62.3842 19.7689 62.157 19.4689 61.7958 19.4689C61.4335 19.4689 61.2074 19.7689 61.0342 20.0475L57.4637 25.3661C57.4637 25.3661 56.2067 27.3525 54.9095 28.5718C52.8813 30.4821 48.6169 29.9239 48.6169 29.9239L58.294 15.0525L48.5916 0.133929ZM46.4366 0H46.4789C46.4789 2.04643 46.2824 3.25929 45.0137 4.20321C44.4215 4.64495 43.7725 5.00254 43.0849 5.26607C41.9567 5.68286 41.1972 6.42857 41.1972 6.42857C41.1972 2.70429 41.757 1.35643 43.257 0.557143C44.1708 0.0728571 45.657 0.00642857 46.2359 0L46.4366 0Z" fill="black"/>
</g>
<defs>
<clipPath id="clip0_1_375">
<rect width="75" height="30" fill="white"/>
</clipPath>
</defs>
</svg>

<svg xmlns="http://www.w3.org/2000/svg" width="160" height="64" fill="none" viewBox="0 0 75 30"><g clip-path="url(#a)"><path fill="#000" fill-rule="evenodd" d="M0 .034s2.954-.381 4.923 1.404C6.137 2.539 6.49 4.294 6.49 4.294l4.022 16.02 3.343-13.113c.326-1.394.913-3.117 1.841-4.282 1.184-1.484 3.59-1.578 3.846-1.578.256 0 2.661.094 3.844 1.578.93 1.165 1.516 2.888 1.843 4.282l3.343 13.113 4.02-16.02s.355-1.756 1.57-2.857C36.132-.347 39.085.034 39.085.034l-7.7 29.941s-2.54.189-3.81-.478c-1.67-.874-2.464-1.55-3.475-5.623l-.104-.424c-.369-1.499-.933-3.846-1.504-6.228l-.172-.715-.17-.71c-.824-3.427-1.582-6.583-1.703-6.983-.115-.377-.25-1.272-.904-1.272-.64 0-.788.897-.905 1.272-.137.441-1.046 4.237-1.96 8.05l-.172.715c-.467 1.958-.94 3.915-1.416 5.871l-.106.424c-1.01 4.073-1.804 4.75-3.473 5.623-1.272.667-3.811.478-3.811.478L0 .035Zm46.477 5.323v1.066h.002v17.815c-.015 3.657-.394 4.468-2.042 5.31-1.281.653-3.24.406-3.24.406V9.999c0-1.002.333-1.659 1.56-2.248.732-.353 1.416-.622 2.126-1.021 1.11-.62 1.594-1.373 1.594-1.373ZM48.592.134s4.095-.721 6.123 1.186c1.297 1.221 2.749 3.418 2.749 3.418l3.57 5.32c.173.276.4.578.76.578.363 0 .59-.302.763-.579l3.57-5.32s1.452-2.196 2.75-3.417C70.904-.587 75 .134 75 .134L65.296 15.05l9.678 14.873-.034.004c-.402.048-4.264.453-6.185-1.356-1.298-1.22-2.627-3.206-2.627-3.206l-3.57-5.319c-.174-.278-.401-.578-.762-.578-.362 0-.589.3-.762.578l-3.57 5.32s-1.257 1.985-2.554 3.205c-2.029 1.91-6.293 1.352-6.293 1.352l9.677-14.871L48.592.133ZM46.437 0h.042c0 2.046-.197 3.26-1.465 4.203-.593.442-1.242.8-1.93 1.063a5.88 5.88 0 0 0-1.887 1.163c0-3.725.56-5.073 2.06-5.872.914-.484 2.4-.55 2.979-.557h.2Z" clip-rule="evenodd"/></g><defs><clipPath id="a"><path fill="#fff" d="M0 0h75v30H0z"/></clipPath></defs></svg>
